X:1
T:Title
%%score { ( 1 3 ) | ( 2 4 ) }
L:1/8
M:4/4
K:A
V:1 treble nm="Grand Piano"
V:3 treble 
V:2 bass 
V:4 bass 
V:1
 z4 z2[Q:1/4=100] [A,CE]2 | [CEA]2 [CEA]2 [CEA]3 [EB] | [Ec]2 [Ec]2 [Ec]2 [Fd]2 | z2 B2 z4 | %4
[M:3/4] [CEA]6 |[M:1/4] [A,CE]2 |[M:4/4] [CEA]2 [CEA]2 [CEA]3 [EB] | [Ec]2 [Ed]2 [Ee]3 [Fd] | %8
 z4 B2 B2 |[M:3/4] [A,CA]6 |[M:1/4] cd |[M:4/4] e4 z4 | e4 z4 | fedc [FB]2 [FA]2 | %14
[M:7/8] z2 A2 z z2 |[M:1/4] E2 |[M:4/4] [A,EA]2 [A,DA]2 [A,CA]Bcd | e2 f2 e3 [Fd] | z4 B2 B2 | %19
[M:3/4] [CA]6 |] %20
V:2
 z4 z2 A,,2 | A,,2 C,E, A,3 [E,G,] | [A,,A,]2 [A,,A,]2 [A,,A,]2 [D,A,]2 | %3
 [E,G,D]2 .[E,G,D]2 [E,G,D]2 [E,DE]2 |[M:3/4] A,,6 |[M:1/4] A,,2 |[M:4/4] A,,2 C,E, A,3 [E,G,] | %7
 [A,,A,]2 [B,,G,]2 [C,A,]3 [D,A,] | z2 .B,2 z4 |[M:3/4] A,,6 |[M:1/4][K:treble] AB |[M:4/4] c4 z4 | %12
 c4 z4 | [A,A]2[K:bass] E2 z4 |[M:7/8] z2 C z z z2 |[M:1/4] [E,G,]D, |[M:4/4] z4 E,2 [A,E]2 | %17
 [A,CA]2 [A,DA]2 [A,CA]3[K:bass] [D,A,] | z2 .B,2 z4 |[M:3/4] [A,,A,]6 |] %20
V:3
 x8 | x8 | x8 | B2 z F, B2 c2 |[M:3/4] x6 |[M:1/4] x2 |[M:4/4] x8 | x8 | c2 dc z F, z D | %9
[M:3/4] x6 |[M:1/4] x2 |[M:4/4] z2 EE c2 cd | z2 EE c2 e2 | x8 |[M:7/8] G2 z A, B3 |[M:1/4] z B, | %16
[M:4/4] x8 | x8 | c2 dc z F, z D |[M:3/4] x6 |] %20
V:4
 x8 | x8 | x8 | x8 |[M:3/4] x6 |[M:1/4] x2 |[M:4/4] x8 | x8 | %8
 [E,A,E]2 [E,E]-[E,A,E] .[E,G,E]2 .[E,G,E]2 |[M:3/4] x6 |[M:1/4][K:treble] x2 | %11
[M:4/4] z2 A,A, [A,EA]2 AB | z2 A,A, [A,EA]2 [A,CA]2 | DC[K:bass][G,B,][A,C] [D,D]2 [^D,B,]2 | %14
[M:7/8] [E,B,E]2 [E,E]2 [E,G,E]3 |[M:1/4] x2 |[M:4/4] C,2 F,2 z [G,E] z B, | x7[K:bass] x | %18
 [E,A,E]2 [E,E]-[E,G,E] .[E,G,E]2 .[E,G,E]2 |[M:3/4] x6 |] %20

